static/img/kroki/971270b29e9f3c3007389de8aa0f0cf9.svg

<?xml version="1.0" encoding="us-ascii" standalone="no"?><svg xmlns="http://www.w3.org/2000/svg" xmlns:xlink="http://www.w3.org/1999/xlink" contentStyleType="text/css" height="152px" preserveAspectRatio="none" style="width:261px;height:152px;" version="1.1" viewBox="0 0 261 152" width="261px" zoomAndPan="magnify"><defs/><g><!--class gcp_container_cluster--><g id="elem_gcp_container_cluster"><rect codeLine="22" fill="#3D176E" height="39.7891" id="gcp_container_cluster" rx="2.5" ry="2.5" style="stroke:#000D19;stroke-width:0.5;" width="223" x="19" y="7"/><ellipse cx="34" cy="26.8945" fill="#ADD1B2" rx="11" ry="11" style="stroke:#181818;stroke-width:1.0;"/><path d="M36.9688,32.5352 Q36.3906,32.832 35.75,32.9727 Q35.1094,33.1289 34.4063,33.1289 Q31.9063,33.1289 30.5781,31.4883 Q29.2656,29.832 29.2656,26.707 Q29.2656,23.582 30.5781,21.9258 Q31.9063,20.2695 34.4063,20.2695 Q35.1094,20.2695 35.75,20.4258 Q36.4063,20.582 36.9688,20.8789 L36.9688,23.5977 Q36.3438,23.0195 35.75,22.7539 Q35.1563,22.4727 34.5313,22.4727 Q33.1875,22.4727 32.5,23.5508 Q31.8125,24.6133 31.8125,26.707 Q31.8125,28.8008 32.5,29.8789 Q33.1875,30.9414 34.5313,30.9414 Q35.1563,30.9414 35.75,30.6758 Q36.3438,30.3945 36.9688,29.8164 L36.9688,32.5352 Z " fill="#000000"/><text fill="#D9B8FF" font-family="Helvetica" font-size="17" lengthAdjust="spacing" textLength="181" x="53" y="32.7798">gcp_container_cluster</text></g><!--class gcp_container_operation--><g id="elem_gcp_container_operation"><rect codeLine="24" fill="#3D176E" height="39.7891" id="gcp_container_operation" rx="2.5" ry="2.5" style="stroke:#000D19;stroke-width:0.5;" width="247" x="7" y="106.79"/><ellipse cx="22" cy="126.6845" fill="#ADD1B2" rx="11" ry="11" style="stroke:#181818;stroke-width:1.0;"/><path d="M24.9688,132.3252 Q24.3906,132.622 23.75,132.7627 Q23.1094,132.9189 22.4063,132.9189 Q19.9063,132.9189 18.5781,131.2783 Q17.2656,129.622 17.2656,126.497 Q17.2656,123.372 18.5781,121.7158 Q19.9063,120.0595 22.4063,120.0595 Q23.1094,120.0595 23.75,120.2158 Q24.4063,120.372 24.9688,120.6689 L24.9688,123.3877 Q24.3438,122.8095 23.75,122.5439 Q23.1563,122.2627 22.5313,122.2627 Q21.1875,122.2627 20.5,123.3408 Q19.8125,124.4033 19.8125,126.497 Q19.8125,128.5908 20.5,129.6689 Q21.1875,130.7314 22.5313,130.7314 Q23.1563,130.7314 23.75,130.4658 Q24.3438,130.1845 24.9688,129.6064 L24.9688,132.3252 Z " fill="#000000"/><text fill="#D9B8FF" font-family="Helvetica" font-size="17" lengthAdjust="spacing" textLength="205" x="41" y="132.5698">gcp_container_operation</text></g><!--link gcp_container_cluster to gcp_container_operation--><g id="link_gcp_container_cluster_gcp_container_operation"><path codeLine="26" d="M130.5,47.22 C130.5,62.49 130.5,83.92 130.5,100.53 " fill="none" id="gcp_container_cluster-to-gcp_container_operation" style="stroke:#1A83AF;stroke-width:2.0;"/><polygon fill="#1A83AF" points="130.5,105.41,134.5,96.41,130.5,100.41,126.5,96.41,130.5,105.41" style="stroke:#1A83AF;stroke-width:2.0;"/></g><!--SRC=[XP1DIyD048Rl_HKBEHSIWpQz26cWwAM8zIPIfhkppP9aDynkBLNyxoQjofgFzZhlCpFFJAu4CgngTsGLLbiaEx65qZKGL2mbCeVCb8PO82N8UDODbqQxgy0AAcGFMBwZKnown4kkUA7HMdRZHGlWnOxCNelpU4UWRHEXTXwLbM1jwXofxTwX9oFcsqJABjaT6iGYcjrX3pCaa7wGC0n5DEyYLrTTlFkFMAiFP97_j9LnsDFihJXH5orRmfFi7VgRZpe-WH1AxzYjLti-Ev56-bTVvo3CeQKbbDPVOnqI6dUiCUjTXVD4oDaW_3W6y_PpRCVh3M_aGJKc6rxksqxsEVaQp4sD14uPVIA6UwUlGPGcSRfyczwFjNy3]--></g></svg>

<svg xmlns="http://www.w3.org/2000/svg" width="261" height="152" preserveAspectRatio="none" style="width:261px;height:152px"><rect width="223" height="39.789" x="19" y="7" fill="#3D176E" rx="2.5" ry="2.5" style="stroke:#000d19;stroke-width:.5"/><circle cx="34" cy="26.895" r="11" fill="#ADD1B2" style="stroke:#181818;stroke-width:1"/><path d="M36.969 32.535q-.578.297-1.219.438-.64.156-1.344.156-2.5 0-3.828-1.64-1.312-1.657-1.312-4.782t1.312-4.781q1.328-1.656 3.828-1.656.703 0 1.344.156.656.156 1.219.453v2.719q-.625-.578-1.219-.844-.594-.281-1.219-.281-1.343 0-2.031 1.078-.688 1.062-.688 3.156 0 2.094.688 3.172.688 1.062 2.031 1.062.625 0 1.219-.265.594-.281 1.219-.86v2.72Z"/><text x="53" y="32.78" fill="#D9B8FF" font-family="Helvetica" font-size="17" textLength="181">gcp_container_cluster</text><rect width="247" height="39.789" x="7" y="106.79" fill="#3D176E" rx="2.5" ry="2.5" style="stroke:#000d19;stroke-width:.5"/><circle cx="22" cy="126.684" r="11" fill="#ADD1B2" style="stroke:#181818;stroke-width:1"/><path d="M24.969 132.325q-.578.297-1.219.438-.64.156-1.344.156-2.5 0-3.828-1.64-1.312-1.657-1.312-4.782t1.312-4.781q1.328-1.656 3.828-1.656.703 0 1.344.156.656.156 1.219.453v2.719q-.625-.579-1.219-.844-.594-.281-1.219-.281-1.343 0-2.031 1.078-.688 1.062-.688 3.156 0 2.094.688 3.172.688 1.062 2.031 1.062.625 0 1.219-.265.594-.281 1.219-.86v2.72Z"/><text x="41" y="132.57" fill="#D9B8FF" font-family="Helvetica" font-size="17" textLength="205">gcp_container_operation</text><path fill="none" d="M130.5 47.22v53.31" style="stroke:#1a83af;stroke-width:2"/><path fill="#1A83AF" d="m130.5 105.41 4-9-4 4-4-4 4 9z" style="stroke:#1a83af;stroke-width:2"/></svg>
